X: 13983
T: Francis McDonald's
R: jig
M: 6/8
K: Gmajor
|:d2 c|BDG Bdg|b^ab gdB|cBc ABc|dBe dBG|
BDG Bdg|b^ab gdB|cBc Aaf|g3:|
|:gg/a/b|c'2 a a^ga|b2 g gfg|a2 c cBc|dBe dBg|
caa a^ga|bgg gfg|afd c'fa|g3:|

